svgs/regular/cloud-rain.svg

<svg xmlns="http://www.w3.org/2000/svg" viewBox="0 0 512 512"><!-- Font Awesome Pro 6.0.0-alpha2 by @fontawesome - https://fontawesome.com License - https://fontawesome.com/license (Commercial License) --><path d="M410.75 104.25C397.25 61.75 358 32 312 32C298.5 32 285.25 34.625 272.75 39.75C250.25 14.5 218.375 0 184 0C120 0 67.625 50.25 64.25 113.375C25.625 130.375 0 168.5 0 212C0 271.5 48.375 320 108 320H404C463.625 320 512 271.5 512 212C512 154.75 467.125 107.75 410.75 104.25ZM404 272H108C74.875 272 48 245.125 48 212C48 184 67.125 160 94.375 153.75L115.25 148.875L112.375 124C112.25 122.75 112 121.375 112 120C112 80.25 144.25 48 184 48C209.25 48 232.25 61.125 245.375 83.125L258.75 105.25L279.75 90.25C289.375 83.625 300.5 80 312 80C340.625 80 364.375 101.75 367.25 130.375L369.5 152H404C437.125 152 464 178.875 464 212S437.125 272 404 272ZM368 464C368 490.51 389.49 512 416 512S464 490.51 464 464S416 368 416 368S368 437.49 368 464ZM48 464C48 490.51 69.49 512 96 512S144 490.51 144 464S96 368 96 368S48 437.49 48 464ZM208 464C208 490.51 229.49 512 256 512S304 490.51 304 464S256 368 256 368S208 437.49 208 464Z"/></svg>

<svg xmlns="http://www.w3.org/2000/svg" viewBox="0 0 512 512"><!--! Font Awesome Pro 6.0.0-alpha3 by @fontawesome - https://fontawesome.com License - https://fontawesome.com/license (Commercial License) --><path d="M410.8 104.3C397.3 61.75 357.1 32 312 32c-13.5 0-26.75 2.625-39.25 7.75C250.3 14.5 218.4 0 184 0c-64 0-116.4 50.25-119.8 113.4C25.63 130.4 0 168.5 0 212C0 271.5 48.38 320 108 320h296C463.6 320 512 271.5 512 212C512 154.8 467.1 107.8 410.8 104.3zM404 272h-296C74.88 272 48 245.1 48 212C48 184 67.13 160 94.38 153.8l20.88-4.875L112.4 124C112.3 122.8 112 121.4 112 120c0-39.75 32.25-72 72-72c25.25 0 48.25 13.12 61.38 35.13l13.38 22.12l21-15C289.4 83.63 300.5 80 312 80c28.62 0 52.38 21.75 55.25 50.38L369.5 152H404c33.13 0 60 26.88 60 60S437.1 272 404 272zM368 464c0 26.51 21.49 48 48 48s48-21.49 48-48s-48.01-95.1-48.01-95.1S368 437.5 368 464zM48 464C48 490.5 69.49 512 96 512s48-21.49 48-48s-48.01-95.1-48.01-95.1S48 437.5 48 464zM208 464c0 26.51 21.49 48 48 48s48-21.49 48-48s-48.01-95.1-48.01-95.1S208 437.5 208 464z"/></svg>
